packages/design-system/src/icons/assets/ic_select.svg

<svg width="28" height="28" viewBox="0 0 28 28" fill="none" xmlns="http://www.w3.org/2000/svg">
<g clip-path="url(#clip0_1310_7965)">
<path d="M13.9997 2.33325C7.55967 2.33325 2.33301 7.55992 2.33301 13.9999C2.33301 20.4399 7.55967 25.6666 13.9997 25.6666C20.4397 25.6666 25.6663 20.4399 25.6663 13.9999C25.6663 7.55992 20.4397 2.33325 13.9997 2.33325ZM13.9997 23.3333C8.85468 23.3333 4.66634 19.1449 4.66634 13.9999C4.66634 8.85492 8.85468 4.66659 13.9997 4.66659C19.1447 4.66659 23.333 8.85492 23.333 13.9999C23.333 19.1449 19.1447 23.3333 13.9997 23.3333ZM18.5263 9.67159L11.6663 16.5316L9.47301 14.3383C9.01801 13.8833 8.28301 13.8833 7.82801 14.3383C7.37301 14.7933 7.37301 15.5283 7.82801 15.9833L10.8497 19.0049C11.3047 19.4599 12.0397 19.4599 12.4947 19.0049L20.183 11.3166C20.638 10.8616 20.638 10.1266 20.183 9.67159C19.728 9.21659 18.9813 9.21659 18.5263 9.67159Z" fill="#B5F602"/>
</g>
<defs>
<clipPath id="clip0_1310_7965">
<rect width="28" height="28" fill="white"/>
</clipPath>
</defs>
</svg>

<svg xmlns="http://www.w3.org/2000/svg" width="28" height="28" fill="none"><g clip-path="url(#a)"><path fill="#B5F602" d="M14 2.333C7.56 2.333 2.333 7.56 2.333 14S7.56 25.667 14 25.667 25.666 20.44 25.666 14 20.44 2.333 14 2.333m0 21c-5.145 0-9.334-4.188-9.334-9.333S8.855 4.667 14 4.667 23.333 8.855 23.333 14 19.145 23.333 14 23.333m4.526-13.661-6.86 6.86-2.193-2.194a1.16 1.16 0 0 0-1.645 0 1.16 1.16 0 0 0 0 1.645l3.022 3.022c.455.455 1.19.455 1.645 0l7.688-7.688a1.16 1.16 0 0 0 0-1.645 1.176 1.176 0 0 0-1.657 0"/></g><defs><clipPath id="a"><path fill="#fff" d="M0 0h28v28H0z"/></clipPath></defs></svg>
